src/img/pause.svg

<svg width="16" height="16" viewBox="0 0 16 16" fill="none" xmlns="http://www.w3.org/2000/svg">
<path d="M6 3.5C6.27614 3.5 6.5 3.72386 6.5 4V12C6.5 12.2761 6.27614 12.5 6 12.5C5.72386 12.5 5.5 12.2761 5.5 12V4C5.5 3.72386 5.72386 3.5 6 3.5Z" fill="black"/>
<path d="M10 3.5C10.2761 3.5 10.5 3.72386 10.5 4V12C10.5 12.2761 10.2761 12.5 10 12.5C9.72386 12.5 9.5 12.2761 9.5 12V4C9.5 3.72386 9.72386 3.5 10 3.5Z" fill="black"/>
</svg>

<svg width="16" height="16" viewBox="0 0 16 16" fill="none" xmlns="http://www.w3.org/2000/svg"><path d="M6 3.5c.28 0 .5.22.5.5v8a.5.5 0 0 1-1 0v-8c0-.28.22-.5.5-.5Zm4 0c.28 0 .5.22.5.5v8a.5.5 0 0 1-1 0v-8c0-.28.22-.5.5-.5Z" fill="#000"/></svg>
